img/person.svg

<svg width="52" height="52" viewBox="0 0 52 52" fill="none" xmlns="http://www.w3.org/2000/svg">
<circle cx="26" cy="26" r="25" fill="white" stroke="#172343" stroke-width="2"/>
<path d="M30.95 28.42H29.33V25.793C30.1999 25.0223 30.8926 24.0724 31.3604 23.0085C31.8282 21.9446 32.0601 20.792 32.04 19.63C32.0408 18.6984 31.8923 17.7726 31.6 16.888V12.5C31.6 12.3674 31.5473 12.2402 31.4536 12.1464C31.3598 12.0527 31.2326 12 31.1 12H19.87C19.7374 12 19.6102 12.0527 19.5164 12.1464C19.4227 12.2402 19.37 12.3674 19.37 12.5V16.981C19.0976 17.8376 18.9593 18.7311 18.96 19.63C18.9411 20.7712 19.1649 21.9034 19.6166 22.9516C20.0683 23.9998 20.7375 24.94 21.58 25.71V28.42H20.05C17.6506 28.4226 15.3502 29.377 13.6536 31.0736C11.957 32.7702 11.0026 35.0706 11 37.47V39.25C11 39.3826 11.0527 39.5098 11.1464 39.6036C11.2402 39.6973 11.3674 39.75 11.5 39.75H39.5C39.6326 39.75 39.7598 39.6973 39.8536 39.6036C39.9473 39.5098 40 39.3826 40 39.25V37.47C39.9974 35.0706 39.043 32.7702 37.3464 31.0736C35.6498 29.377 33.3494 28.4226 30.95 28.42ZM22.58 26.45L22.6 26.46C22.635 26.481 22.673 26.495 22.709 26.515C22.9307 26.6376 23.1602 26.7455 23.396 26.838C23.515 26.885 23.635 26.923 23.756 26.962C23.905 27.009 24.056 27.049 24.206 27.084C24.356 27.119 24.506 27.154 24.659 27.177C24.776 27.194 24.894 27.198 25.012 27.208C25.175 27.222 25.335 27.251 25.5 27.251C25.665 27.251 25.811 27.224 25.966 27.211C26.066 27.203 26.157 27.199 26.252 27.187C26.416 27.165 26.578 27.133 26.739 27.097C26.875 27.067 27.01 27.03 27.139 26.991C27.268 26.952 27.395 26.915 27.521 26.867C27.7466 26.7813 27.9664 26.6811 28.179 26.567C28.221 26.545 28.265 26.53 28.307 26.507L28.325 26.498V28.92C28.3247 29.4265 28.1234 29.9121 27.7653 30.2703C27.4071 30.6284 26.9215 30.8297 26.415 30.83H24.49C23.9836 30.8295 23.4981 30.6281 23.14 30.27C22.7819 29.9119 22.5805 29.4264 22.58 28.92V26.45ZM20.37 13H30.6V16.35H20.37V13ZM20.322 17.337C20.339 17.337 20.353 17.346 20.37 17.346H24.327C23.0566 18.2777 21.5692 18.8694 20.006 19.065C20.0447 18.4788 20.1508 17.899 20.322 17.337ZM19.984 20.092C22.1732 19.8312 24.2252 18.8892 25.85 17.399C25.8626 17.382 25.8743 17.3643 25.885 17.346H30.63C30.647 17.346 30.661 17.338 30.678 17.337C30.9139 18.0786 31.0359 18.8518 31.04 19.63C31.0651 20.6842 30.8516 21.7305 30.4156 22.6907C29.9796 23.6508 29.3323 24.5001 28.522 25.175C27.8728 25.6908 27.1022 26.0317 26.2838 26.1651C25.4654 26.2985 24.6264 26.22 23.847 25.937C23.3186 25.7431 22.8272 25.4603 22.394 25.101C21.6679 24.478 21.0788 23.7112 20.664 22.8491C20.2492 21.9869 20.0177 21.0482 19.984 20.092ZM39 38.75H12V37.47C12.0024 35.3357 12.8513 33.2896 14.3604 31.7804C15.8696 30.2713 17.9157 29.4224 20.05 29.42H21.623C21.7415 30.0946 22.0938 30.7059 22.618 31.1466C23.1423 31.5873 23.8051 31.8293 24.49 31.83H26.42C27.1049 31.8293 27.7677 31.5873 28.292 31.1466C28.8162 30.7059 29.1685 30.0946 29.287 29.42H30.95C33.0843 29.4224 35.1304 30.2713 36.6396 31.7804C38.1487 33.2896 38.9976 35.3357 39 37.47V38.75Z" fill="black"/>
<path d="M35.156 31.816C35.1035 31.7766 35.0437 31.7479 34.9801 31.7316C34.9165 31.7154 34.8503 31.7117 34.7853 31.721C34.7203 31.7303 34.6578 31.7523 34.6013 31.7858C34.5448 31.8192 34.4954 31.8635 34.456 31.916C34.4166 31.9685 34.3879 32.0283 34.3716 32.0919C34.3553 32.1555 34.3517 32.2217 34.361 32.2867C34.3703 32.3517 34.3923 32.4143 34.4258 32.4708C34.4592 32.5272 34.5035 32.5766 34.556 32.616C35.2167 33.1049 35.7704 33.7237 36.1831 34.4345C36.5958 35.1452 36.8588 35.9329 36.956 36.749H13.5C13.3674 36.749 13.2402 36.8017 13.1464 36.8955C13.0527 36.9892 13 37.1164 13 37.249C13 37.3816 13.0527 37.5088 13.1464 37.6026C13.2402 37.6963 13.3674 37.749 13.5 37.749H37.5C37.567 37.749 37.6333 37.7355 37.6949 37.7094C37.7566 37.6833 37.8124 37.6451 37.859 37.597C37.9056 37.5486 37.9421 37.4914 37.9663 37.4287C37.9905 37.366 38.002 37.2992 38 37.232C37.9657 36.1731 37.692 35.1357 37.1995 34.1977C36.7069 33.2597 36.0083 32.4454 35.156 31.816Z" fill="black"/>
</svg>

<svg xmlns="http://www.w3.org/2000/svg" width="52" height="52" fill="none"><circle cx="26" cy="26" r="25" fill="#fff" stroke="#172343" stroke-width="2"/><path fill="#000" d="M30.95 28.42h-1.62v-2.627a8.048 8.048 0 0 0 2.71-6.163c0-.932-.148-1.857-.44-2.742V12.5a.5.5 0 0 0-.5-.5H19.87a.5.5 0 0 0-.5.5v4.481a8.719 8.719 0 0 0-.41 2.649 8.056 8.056 0 0 0 2.62 6.08v2.71h-1.53A9.06 9.06 0 0 0 11 37.47v1.78a.5.5 0 0 0 .5.5h28a.5.5 0 0 0 .5-.5v-1.78a9.06 9.06 0 0 0-9.05-9.05Zm-8.37-1.97.02.01c.035.021.073.035.109.055.222.123.451.23.687.323.119.047.239.085.36.124.149.047.3.087.45.122.15.035.3.07.453.093.117.017.235.021.353.031.163.014.323.043.488.043.165 0 .311-.027.466-.04.1-.008.191-.012.286-.024a5.715 5.715 0 0 0 .887-.196c.129-.039.256-.076.382-.124.226-.086.445-.186.658-.3.042-.022.086-.037.128-.06l.018-.009v2.422a1.911 1.911 0 0 1-1.91 1.91H24.49a1.912 1.912 0 0 1-1.91-1.91v-2.47ZM20.37 13H30.6v3.35H20.37V13Zm-.048 4.337c.017 0 .031.009.048.009h3.957a9.248 9.248 0 0 1-4.321 1.719 7.662 7.662 0 0 1 .316-1.728Zm-.338 2.755a10.52 10.52 0 0 0 5.866-2.693.585.585 0 0 0 .035-.053h4.745c.017 0 .031-.008.048-.009.236.742.358 1.515.362 2.293a7 7 0 0 1-2.518 5.545 4.853 4.853 0 0 1-6.128-.074 6.922 6.922 0 0 1-2.41-5.009ZM39 38.75H12v-1.28a8.06 8.06 0 0 1 8.05-8.05h1.573a2.914 2.914 0 0 0 2.867 2.41h1.93a2.914 2.914 0 0 0 2.867-2.41h1.663A8.06 8.06 0 0 1 39 37.47v1.28Z"/><path fill="#000" d="M35.156 31.816a.5.5 0 1 0-.6.8 6.027 6.027 0 0 1 2.4 4.133H13.5a.5.5 0 0 0 0 1h24a.5.5 0 0 0 .5-.517 7.016 7.016 0 0 0-2.844-5.416Z"/></svg>
